public/facebook-mobile.svg

<svg width="24" height="24" viewBox="0 0 24 24" fill="none" xmlns="http://www.w3.org/2000/svg">
<circle cx="12" cy="12" r="11.7" fill="#075430" stroke="white" stroke-width="0.6"/>
<path d="M12.8001 12.7192H13.943L14.4001 10.7992H12.8001V9.83922C12.8001 9.34482 12.8001 8.87922 13.7144 8.87922H14.4001V7.26642C14.2511 7.24578 13.6883 7.19922 13.094 7.19922C11.8529 7.19922 10.9715 7.99458 10.9715 9.45522V10.7992H9.6001V12.7192H10.9715V16.7992H12.8001V12.7192Z" fill="white"/>
</svg>

<svg xmlns="http://www.w3.org/2000/svg" width="24" height="24" fill="none" viewBox="0 0 24 24"><circle cx="12" cy="12" r="11.7" fill="#075430" stroke="#fff" stroke-width=".6"/><path fill="#fff" d="M12.8 12.72h1.143l.457-1.92h-1.6v-.96c0-.495 0-.96.914-.96h.686V7.265a12 12 0 0 0-1.306-.067c-1.241 0-2.122.796-2.122 2.256V10.8H9.6v1.92h1.372v4.08H12.8z"/></svg>
